X: 11213
Q: "Andante."
M: 6/8
L: 1/8
K: G
d |\
d |\
^G2G e2d | (dc)c c2c |
^c2c c>Bc | edz z2(d | c2)(c B2)B | (BA)z z2A |\


